X:1
T:Title
L:1/8
M:6/8
I:linebreak $
K:G
V:1 treble nm="Voice"
V:1
"G" GBd gdB |"C" PcBc edB |"G" GBd gdB |"C" PcAF"D" AFD |"G" GBd gdB |"C" c2 e"G" dBd | %6
 Pg2 e dBG |1"C" cAF"G" G2 D :|2"C" cAF"G" GBd |:"G" g2 d"C" edc |"G" BGB"D" def |"G" g2 d"C" edc | %12
 BcA A2 f |"G" g2 d"C" edc |"G" BGB"D" dfa |"G" Pg2 e dBG |1"C" cAF"G" GBd :|2"C" PcAF"G" G2 D |] %18
